assets/Skull/Flat/skull_flat.svg

<svg width="32" height="32" viewBox="0 0 32 32" fill="none" xmlns="http://www.w3.org/2000/svg">
<path d="M16.0278 1C7.74582 1 1.02777 7.71514 1.02777 15.995C1.02777 18.7681 1.78997 20.7383 3.31443 22.0278C4.57567 23.0948 6.23271 23.5821 8.02777 23.8128V28.0007C8.02777 29.6529 9.37582 31 11.0278 31C12.069 31 12.9895 30.4649 13.5278 29.6554C14.0661 30.4649 14.9866 31 16.0278 31C17.069 31 17.9895 30.4649 18.5278 29.6554C19.0661 30.4649 19.9866 31 21.0278 31C22.6797 31 24.0278 29.6529 24.0278 28.0007V23.811C25.8222 23.5772 27.4794 23.0901 28.7407 22.0245C30.2654 20.7362 31.0278 18.7683 31.0278 15.995C31.0278 7.71514 24.3097 1 16.0278 1Z" fill="#9B9B9B"/>
<path d="M16.0278 2C8.29777 2 2.02777 8.26776 2.02777 15.995C2.02777 21.1732 4.84777 22.5627 9.02777 22.9125V28.0007C9.02777 29.1003 9.92777 30 11.0278 30C12.1278 30 13.0278 29.1003 13.0278 28.0007V25.4918C13.0278 25.2156 13.2516 24.9918 13.5278 24.9918C13.8039 24.9918 14.0278 25.2156 14.0278 25.4918V28.0007C14.0278 29.1003 14.9278 30 16.0278 30C17.1278 30 18.0278 29.1003 18.0278 28.0007V25.4918C18.0278 25.2156 18.2516 24.9918 18.5278 24.9918C18.8039 24.9918 19.0278 25.2156 19.0278 25.4918V28.0007C19.0278 29.1003 19.9278 30 21.0278 30C22.1278 30 23.0278 29.1003 23.0278 28.0007V22.9125C27.2078 22.5527 30.0278 21.1732 30.0278 15.995C30.0278 8.26776 23.7578 2 16.0278 2Z" fill="white"/>
<path d="M14 16.7617C14 19.3928 11.9866 20 9.5 20C7.01342 20 5 19.3928 5 16.7617C5 14.1305 7.01342 12 9.5 12C11.9866 12 14 14.1305 14 16.7617Z" fill="#402A32"/>
<path d="M27 16.7617C27 19.3928 24.9866 20 22.5 20C20.0134 20 18 19.3928 18 16.7617C18 14.1305 20.0134 12 22.5 12C24.9866 12 27 14.1305 27 16.7617Z" fill="#402A32"/>
<path d="M15.01 21.97H16.98C17.48 21.97 17.83 21.48 17.66 21.01L17.29 19.93C17.1 19.37 16.58 19 15.99 19C15.4 19 14.87 19.38 14.68 19.93L14.32 21.01C14.16 21.48 14.51 21.97 15.01 21.97Z" fill="#402A32"/>
</svg>

<svg xmlns="http://www.w3.org/2000/svg" width="32" height="32" fill="none"><path fill="#9B9B9B" d="M16.028 1c-8.282 0-15 6.715-15 14.995 0 2.773.762 4.743 2.286 6.033 1.262 1.067 2.919 1.554 4.714 1.785V28c0 1.652 1.348 2.999 3 2.999a3.002 3.002 0 0 0 2.5-1.345 3.002 3.002 0 0 0 2.5 1.345 3.002 3.002 0 0 0 2.5-1.345 3.002 3.002 0 0 0 2.5 1.345c1.652 0 3-1.347 3-3v-4.189c1.794-.234 3.451-.72 4.713-1.787 1.524-1.288 2.287-3.256 2.287-6.029 0-8.28-6.718-14.995-15-14.995Z"/><path fill="#fff" d="M16.028 2c-7.73 0-14 6.268-14 13.995 0 5.178 2.82 6.568 7 6.918V28c0 1.1.9 1.999 2 1.999s2-.9 2-2v-2.508a.5.5 0 1 1 1 0V28c0 1.1.9 1.999 2 1.999s2-.9 2-2v-2.508a.5.5 0 1 1 1 0V28c0 1.1.9 1.999 2 1.999s2-.9 2-2v-5.087c4.18-.36 7-1.74 7-6.918 0-7.727-6.27-13.995-14-13.995Z"/><path fill="#402A32" d="M14 16.762C14 19.392 11.987 20 9.5 20S5 19.393 5 16.762C5 14.13 7.013 12 9.5 12s4.5 2.13 4.5 4.762ZM27 16.762C27 19.392 24.987 20 22.5 20s-4.5-.607-4.5-3.238C18 14.13 20.013 12 22.5 12s4.5 2.13 4.5 4.762ZM15.01 21.97h1.97c.5 0 .85-.49.68-.96l-.37-1.08c-.19-.56-.71-.93-1.3-.93-.59 0-1.12.38-1.31.93l-.36 1.08c-.16.47.19.96.69.96Z"/></svg>
